X: 10502
T: La BOSSE'S HORNPIPE
C:
%R: hornpipe, reel
B: Elias Howe "The Musician's Companion" Part 1 1842 p.50 #2
S: http://imslp.org/wiki/The_Musician's_Companion_(Howe,_Elias)
Z: 2015 John Chambers <jc:trillian.mit.edu>
M: 2/4
L: 1/16
K: D
% - - - - - - - - - - - - - - - - - - - - - - - - -
de |\
f2d2 ABAF | G2E2E2 GF | FDFA dAFD | A2A,2A,2 de |\
f2d2 ABAF | G2E2E2 de | f2df edeg | f2d2d2 :|
|: AG |\
FGAG FGAF | B2G2G2 GF | E2GF EFGE | A2F2F2A2 |\
d2fe d2fd | e4 gfed | fgaf bgec | d2d2d2 :|
% - - - - - - - - - - - - - - - - - - - - - - - - -


